svgs/sharp-solid/tally-3.svg

<svg xmlns="http://www.w3.org/2000/svg" viewBox="0 0 640 512"><!--! Font Awesome Pro 6.6.0 by @fontawesome - https://fontawesome.com License - https://fontawesome.com/license (Commercial License) Copyright 2024 Fonticons, Inc. --><path d="M160 32l0 32 0 384 0 32-64 0 0-32L96 64l0-32 64 0zm128 0l0 32 0 384 0 32-64 0 0-32 0-384 0-32 64 0zM416 64l0 384 0 32-64 0 0-32 0-384 0-32 64 0 0 32z"/></svg>

<svg xmlns="http://www.w3.org/2000/svg" viewBox="0 0 640 512"><!--! Font Awesome Pro 6.4.2 by @fontawesome - https://fontawesome.com License - https://fontawesome.com/license (Commercial License) Copyright 2023 Fonticons, Inc. --><path d="M160 32V64 448v32H96V448 64 32h64zm128 0V64 448v32H224V448 64 32h64zM416 64V448v32H352V448 64 32h64V64z"/></svg>
